X:1
T:3 Lieder, Op.7
T:Wenn der Abendstern die Rosen
T:3. Wenn der Abendstern die Rosen
T:Emilie Mayer 
T:3 Lieder, Op. 7
T:Helmina von Chézy
T:Creative Commons copyright waiver (CC0 1.0 Universal)
T:Creative Commons copyright waiver (CC0 1.0 Universal)
C:Emilie Mayer
Z:Helmina von Chézy
Z:Creative Commons copyright waiver (CC0 1.0 Universal)
%%score 1 { ( 2 4 ) | 3 }
L:1/8
Q:1/4=92
M:4/4
K:Ab
V:1 treble nm="Singstimme\nVoice"
V:2 treble nm="Pianoforte"
V:4 treble 
V:3 bass 
V:1
"^Andantino" z2 | z8 | z8 | z8 | z4 z2!p! E A |: c2 c2 e2 dc | c2- (3cBd F2 B3/2 A/ | %7
w: ||||1. Wenn der|A- bend- stern die *|Ro- * * * sen still mit|
w: |||||2. grü- ner Wal- dung *|Mit- * * * te rings von|
!<(! (A>G) (c>B) (d>c) (f>e)!<)! | (d3 c/4d/4e/4d/4 c2) (3EA B | c2 c2 cd cB | %10
w: Sehn- * suchts * Bli- * cken *|grüsst _ _ _ _ _ und * bei|lau- er We- * ste *|
w: Blum' * und * Busch * um- *|kränzt _ _ _ _ _ nun * des|Land- manns stil- * le *|
 B2 A2{/B} (3(AGA c/>B/) A/F/ | F2 E2 (!turn!E2 F) G | A2 z2 z2 (3EA =A | B3 B e>=d g>f | %14
w: Ko- sen Blu- * * * * me *|sich an Blu- * me|schliesst dann * er-|greift mich hei- * sses *|
w: Hüt- te fried- * * * * lich *|süss im Mond- * licht|glänzt ach * dann|wünsch ich mir * hie- *|
 e2 B2 z2 B3/2 c/ | B3 B e>=d g>f | e2 z2 z2"^crescendo" _d3/2 B/ | A3 A A2 Bc | e2 d2 z2 d3/2 d/ | %19
w: Ban- gen ach zu|ruh'n an dei- * ner *|Brust und von|dei- nem Arm um- *|fan- gen zu ver-|
w: nie- den solch ein|Hütt- chen stil * und *|arm seel'- ger|Un- schuld Him- mels- *|frie- den und den|
 =d3 d d3 d | (f2 e2) z2 e3/2 e/ | =e3 e ef/e/ =d e |!f! g2 f2 (3(e_dc (3ed) B | %23
w: geh'n in Schmerz und|Lust * und von|dei- nem Arm * * * um-|fan- gen zu _ _ _ _ ver-|
w: Tod in dei- nem|Arm * seel'- ger|Un- schuld Him- * * * mels-|frie- den und _ _ _ _ den|
 (B2 (3AG) F (3EFG (3AB =B | c2 z2 (3(BAG (3BA) F | (F2 E) E (!turn!E2 F) G | A2 z2 z4 | %27
w: gehn _ _ in Schmerz * * * * und|Lust zu _ _ _ _ ver-|geh'n * in Schmerz * und|Lust!|
w: Tod _ _ in dei- * * * * nem|Arm und _ _ _ _ den|Tod * in dei- * nem|Arm!|
 z4 z2 E A :| %28
w: 2. Wenn in|
w: |
V:2
!p! EA | c2 Tc2{=Bc} !>!e2 dc | c2- (3cBd F2 B>A |!<(! (A>G) (c>B) (d>c) (f>e)!<)! | z8 |: z8 | %6
 z8 | z8 | z8 | z8 | z8 | z8 | z8 | z8 | z8 | z8 | z8 | z8 | z8 | z8 | z8 | z8 | z8 | z8 | z8 | %25
 z8 | z8 | z8 :| %28
V:3
 z2 | (3[A,,A,][A,C][A,C] (3:2:1!/![A,C]3 (3C,[I:staff -1][CEA][CEA] (3:2:1!/![CEA]3 | %2
[I:staff +1] z8 | z8 | z8 |: z8 | z8 | z8 | z8 | z8 | z8 | z8 | z8 | z8 | z8 | z8 | z8 | z8 | z8 | %19
 z8 | z8 | z8 | z8 | z8 | z8 | z8 | z8 | z8 :| %28
V:4
 x2 | (3x EE (3:2:1!/!E3 x4 | z8 | x8 | x8 |: x8 | x8 | x8 | x8 | x8 | x8 | x8 | x8 | x8 | x8 | %15
 x8 | x8 | x8 | x8 | x8 | x8 | x8 | x8 | x8 | x8 | x8 | x8 | x8 :| %28

